public/svgs/light/arrows-from-line.svg

<svg xmlns="http://www.w3.org/2000/svg" viewBox="0 0 448 512"><!-- Font Awesome Pro 6.0.0-alpha2 by @fontawesome - https://fontawesome.com License - https://fontawesome.com/license (Commercial License) --><path d="M144 111.984C148.094 111.984 152.188 110.422 155.312 107.297L208 54.609V175.988C208 184.832 215.156 191.988 224 191.988S240 184.832 240 175.988V54.609L292.688 107.297C295.812 110.422 299.906 111.984 304 111.984C313.139 111.984 320 104.512 320 95.984C320 91.891 318.438 87.797 315.312 84.672L235.332 4.688C231.299 0.645 226.455 0 224 0S216.701 0.645 212.668 4.688L132.688 84.672C129.562 87.797 128 91.891 128 95.984C128 104.512 134.865 111.984 144 111.984ZM304 399.996C299.906 399.996 295.812 401.559 292.688 404.684L240 457.375V335.992C240 327.148 232.844 319.992 224 319.992S208 327.148 208 335.992V457.375L155.312 404.684C152.188 401.559 148.094 399.996 144 399.996C134.861 399.996 128 407.469 128 415.996C128 420.09 129.562 424.184 132.688 427.309L212.668 507.293C214.391 509.02 218.324 512 224 512S233.609 509.02 235.332 507.293L315.312 427.309C318.438 424.184 320 420.09 320 415.996C320 407.469 313.135 399.996 304 399.996ZM432 240H16C7.156 240 0 247.156 0 256S7.156 272 16 272H432C440.844 272 448 264.844 448 256S440.844 240 432 240Z"/></svg>

<svg xmlns="http://www.w3.org/2000/svg" viewBox="0 0 448 512"><!--! Font Awesome Pro 6.5.1 by @fontawesome - https://fontawesome.com License - https://fontawesome.com/license (Commercial License) Copyright 2023 Fonticons, Inc. --><path d="M235.3 4.7c-3-3-7.1-4.7-11.3-4.7s-8.3 1.7-11.3 4.7l-80 80c-6.2 6.2-6.2 16.4 0 22.6s16.4 6.2 22.6 0L208 54.6V176c0 8.8 7.2 16 16 16s16-7.2 16-16V54.6l52.7 52.7c6.2 6.2 16.4 6.2 22.6 0s6.2-16.4 0-22.6l-80-80zM0 256c0 8.8 7.2 16 16 16H432c8.8 0 16-7.2 16-16s-7.2-16-16-16H16c-8.8 0-16 7.2-16 16zM224 512c4.2 0 8.3-1.7 11.3-4.7l80-80c6.2-6.2 6.2-16.4 0-22.6s-16.4-6.2-22.6 0L240 457.4 240 336c0-8.8-7.2-16-16-16s-16 7.2-16 16l0 121.4-52.7-52.7c-6.2-6.2-16.4-6.2-22.6 0s-6.2 16.4 0 22.6l80 80c3 3 7.1 4.7 11.3 4.7z"/></svg>
